static/images/onionshare.svg

<?xml version="1.0" encoding="UTF-8"?>
<svg xmlns="http://www.w3.org/2000/svg" xmlns:xlink="http://www.w3.org/1999/xlink" width="313pt" height="313pt" viewBox="0 0 313 313" version="1.1">
<g id="surface616">
<path style=" stroke:none;fill-rule:nonzero;fill:rgb(0%,0%,0%);fill-opacity:1;" d="M 273.875 156.5 C 273.875 91.667969 221.320312 39.125 156.5 39.125 C 122.222656 39.125 91.382812 53.828125 69.917969 77.253906 L 109.765625 117.101562 C 120.972656 103.804688 137.746094 95.367188 156.5 95.367188 C 190.269531 95.367188 217.632812 122.730469 217.632812 156.5 L 190.734375 156.5 L 244.53125 210.296875 L 298.328125 156.5 Z M 273.875 156.5 "/>
<path style=" stroke:none;fill-rule:nonzero;fill:rgb(30.588236%,4.705882%,30.588236%);fill-opacity:1;" d="M 313 156.5 C 313 242.925781 242.925781 313 156.5 313 C 70.0625 313 0 242.925781 0 156.5 C 0 70.0625 70.0625 0 156.5 0 C 242.925781 0 313 70.0625 313 156.5 Z M 313 156.5 "/>
<path style=" stroke:none;fill-rule:nonzero;fill:rgb(100%,100%,100%);fill-opacity:1;" d="M 273.875 156.5 C 273.875 91.667969 221.320312 39.125 156.5 39.125 C 122.222656 39.125 91.382812 53.828125 69.917969 77.253906 L 109.765625 117.101562 C 120.972656 103.804688 137.746094 95.367188 156.5 95.367188 C 190.269531 95.367188 217.632812 122.730469 217.632812 156.5 L 190.734375 156.5 L 244.53125 210.296875 L 298.328125 156.5 Z M 273.875 156.5 "/>
<path style=" stroke:none;fill-rule:nonzero;fill:rgb(100%,100%,100%);fill-opacity:1;" d="M 39.125 156.5 C 39.125 221.320312 91.667969 273.875 156.5 273.875 C 190.773438 273.875 221.617188 259.171875 243.082031 235.746094 L 203.234375 195.898438 C 192.027344 209.191406 175.253906 217.632812 156.5 217.632812 C 122.730469 217.632812 95.367188 190.269531 95.367188 156.5 L 122.265625 156.5 L 68.46875 102.703125 L 14.671875 156.5 Z M 39.125 156.5 "/>
</g>
</svg>

<?xml version="1.0" encoding="UTF-8"?>
<svg width="313pt" height="313pt" version="1.1" viewBox="0 0 313 313" xmlns="http://www.w3.org/2000/svg">
 <g id="surface616">
  <path d="m273.88 156.5c0-64.832-52.555-117.38-117.38-117.38-34.277 0-65.117 14.703-86.582 38.129l39.848 39.848c11.207-13.297 27.98-21.734 46.734-21.734 33.77 0 61.133 27.363 61.133 61.133h-26.898l53.797 53.797 53.797-53.797z"/>
  <path d="m313 156.5c0 86.426-70.074 156.5-156.5 156.5-86.438 0-156.5-70.074-156.5-156.5 0-86.438 70.062-156.5 156.5-156.5 86.426 0 156.5 70.062 156.5 156.5z" fill="#4e0b4e"/>
  <path d="m273.88 156.5c0-64.832-52.555-117.38-117.38-117.38-34.277 0-65.117 14.703-86.582 38.129l39.848 39.848c11.207-13.297 27.98-21.734 46.734-21.734 33.77 0 61.133 27.363 61.133 61.133h-26.898l53.797 53.797 53.797-53.797z" fill="#fff"/>
  <path d="m39.125 156.5c0 64.82 52.543 117.38 117.38 117.38 34.273 0 65.117-14.703 86.582-38.129l-39.848-39.848c-11.207 13.293-27.98 21.734-46.734 21.734-33.77 0-61.133-27.363-61.133-61.133h26.898l-53.797-53.797-53.797 53.797z" fill="#fff"/>
 </g>
</svg>
